!!!OTL: 203e. Das betrogene Maedchen. (Drei Roeslein.)
!!!ARE: Europa, Mitteleuropa, Deutschland, Schlesien
!!!SCT: E0203D
!!!TXL: @@DE
!!!YEM: Copyright 1995, estate of Helmut Schaffrath.
**kern	**text
*ICvox	*
*M2/4	*
*k[b-e-]	*
*B-:	*
!LO:TX:a:t=Mäßig.	!
!LO:TX:a:t=Hoffmann, Schleſ. VL. Nr. 137.	!
{8f	Jch
=1	=1
8b-/	gieng
8b-/	wol
8ccL	in
8aJ	den
=2	=2
4b-/	Kret-
8f}	-ſcham,
{8f	ich
=3	=3
8g	tanʒ-
8f	-te
8d	a-
8B-	-ber
=4	=4
4f	nicht;
8r}	.
{8b-	ich
=5	=5
8dd	ſucht
8dd	mir
8dd	mein
8ee-	Feins-
=6	=6
(8.ffL	-lieb-
16ggJ)	.
8ff}	-chen,
{8ee-	ich
=7	=7
4dd	fand's
4cc	aber
=8	=8
4b-	nicht.
8r}	.
==	==
!!!AGN: erzaehlendes Volks - Lied, Todes - Ahnung; betrogene Liebe
!!!ONB: ESAC (Essen Associative Code) Database: ERK1
!!!AMT: simple duple
!!!AIN: vox
!!!EED: Helmut Schaffrath
!!!EEV: 1.0
!!!GTL: Todtensagen (Todesahnung, Geisterliebe, Grabesstimmen)
!!!URL-scan: https://rosdok.uni-rostock.de/mcrviewer/recordIdentifier/rosdok_ppn745146120/iview2/phys_0677.iview2?x=-128.7727644188933&y=562.8706197068095&scale=0.5870222003877484&rotation=0&layout=singlePageLayout
!!!ENC: Anna Maria Matuszewska
!!!EEV: 2024/06/12
*-	*-
